!!!OTL: Bruederschaft.
!!!OTL-incipit: IST EDEL GLEICH DAS REBENNASS
!!!COM: H. Dorn
!!!ARE: Europa, Mitteleuropa, Deutschland
!!!SCT: F0698
!!!TXL: @@DE
!!!YEM: Copyright 1995, estate of Helmut Schaffrath.
**kern	**text
*ICvox	*
*I"2 Tenore	*
*clefG2	*
*M2/4	*
*k[b-]	*
*F:	*
{8cc/	Jſt
=1	=1
8dd/	e-
8cc/	-del
8b/	gleich
8cc/	das
=2	=2
8.ff/	Re-
16ee/	-bennaß,
8dd/}	.
{8cc/	ſtoß'
=3	=3
8b-/	an,
8b-/	ſtoß'
8a/	an,
8b-/	daß
=4	=4
8.gg/	ü-
16ee/	-berquillt
8cc/}	.
{8b-/	das
=5	=5
8a	Glas,
8cc/	Freund!
8dd/	un-
8ee/	-ſer
=6	=6
4ff/}	Blut,
{8cc/	unſer
8cc/	.
=7	=7
8.dd/	Blut
16cc/	be-
8b-/	-deu-
8a	-tet
=8	=8
2g}	das!
=9	=9
{4ee/	Mein
8cc/	Blut,
8cc/	das
=10	=10
8.dd/	ſtrömen
16cc/	.
8dd/	ſoll
8ee/	für
=11	=11
2cc/}	Dich!
=12	=12
{4ee/	Dein
8cc/	Blut
8cc/	das
=13	=13
8eeqq	.
8.dd/	ſtrömen
16cc/	.
8dd/	ſoll
8ee/	für
=14	=14
8cc/}	mich,
{8cc/	wenn
8.ff/	Du
16cc/	in
=15	=15
8dd/	Roth
8b-/	kämſt
8a	o-
8g	-der
=16	=16
8a}	ich,
{8cc/	wenn
8.ff/	Du
16cc/	in
=17	=17
8dd/	Noth
8gg^^	kämſt
8ff^^	o-
8ee^^	-der
=18	=18
4ff	ich.
8r}	.
==	==
!!!AGN: Geselligkeits -, Bundes -, Trink - Lied
!!!ONB: ESAC (Essen Associative Code) Database: FINK
!!!AMT: simple duple
!!!AIN: vox
!!!EED: Helmut Schaffrath
!!!EEV: 1.0
!!Text: Haug
!!!GTL: Liedertafel- und Gesellschaftslieder
!!!source: Musikalischer Hausschatz der Deutschen. Eine Sammlung von über 1000 Liedern und Gesängen mit Singstimmen und Klavierbegleitung. Leipzig, Litterarisches Verlags-Haus.
!!!page: 469
!!!URL-scan: https://www.digitale-sammlungen.de/en/view/bsb11144622?page=499
!!!ENC: Anna Maria Matuszewska
!!!EEV: 2024/08/06
*-	*-
